src/assets/images/header-logo.svg

<svg width="129" height="29" viewBox="0 0 129 29" fill="none" xmlns="http://www.w3.org/2000/svg">
<path d="M89.0803 6.2V23H86.5123L77.2483 11.624V23H74.1523V6.2H76.7203L85.9843 17.576V6.2H89.0803ZM93.294 10.184H96.294V23H93.294V10.184ZM94.806 8.072C94.262 8.072 93.806 7.904 93.438 7.568C93.07 7.216 92.886 6.784 92.886 6.272C92.886 5.76 93.07 5.336 93.438 5C93.806 4.648 94.262 4.472 94.806 4.472C95.35 4.472 95.806 4.64 96.174 4.976C96.542 5.296 96.726 5.704 96.726 6.2C96.726 6.728 96.542 7.176 96.174 7.544C95.822 7.896 95.366 8.072 94.806 8.072ZM105.463 17.504L103.231 19.616V23H100.231V5.192H103.231V15.944L109.447 10.184H113.047L107.695 15.56L113.551 23H109.903L105.463 17.504ZM126.998 16.664C126.998 16.872 126.982 17.168 126.95 17.552H116.894C117.07 18.496 117.526 19.248 118.262 19.808C119.014 20.352 119.942 20.624 121.046 20.624C122.454 20.624 123.614 20.16 124.526 19.232L126.134 21.08C125.558 21.768 124.83 22.288 123.95 22.64C123.07 22.992 122.078 23.168 120.974 23.168C119.566 23.168 118.326 22.888 117.254 22.328C116.182 21.768 115.35 20.992 114.758 20C114.182 18.992 113.894 17.856 113.894 16.592C113.894 15.344 114.174 14.224 114.734 13.232C115.31 12.224 116.102 11.44 117.11 10.88C118.118 10.32 119.254 10.04 120.518 10.04C121.766 10.04 122.878 10.32 123.854 10.88C124.846 11.424 125.614 12.2 126.158 13.208C126.718 14.2 126.998 15.352 126.998 16.664ZM120.518 12.44C119.558 12.44 118.742 12.728 118.07 13.304C117.414 13.864 117.014 14.616 116.87 15.56H124.142C124.014 14.632 123.622 13.88 122.966 13.304C122.31 12.728 121.494 12.44 120.518 12.44Z" fill="#FF6452"/>
<path fill-rule="evenodd" clip-rule="evenodd" d="M37.6096 9.80468C25.1346 13.2758 14.071 16.112 13.0239 16.1065C10.0114 16.0904 7.19209 13.7015 6.76806 10.8064C6.56893 9.44425 6.60402 7.46928 6.84618 6.41814L7.28659 4.50653L5.67183 6.53232C3.16986 9.67124 0.775395 14.608 0.291439 17.6257C-0.65927 23.552 4.08624 27.46 10.4653 26.0039C12.9937 25.4271 60.9554 4.55665 61.8216 3.65636C62.4835 2.96871 58.9453 3.86726 37.6096 9.80468Z" fill="#FF6452"/>
</svg>

<?xml version="1.0" encoding="utf-8"?>
<!-- Generator: Adobe Illustrator 24.1.1, SVG Export Plug-In . SVG Version: 6.00 Build 0)  -->
<svg version="1.1" id="Layer_1" xmlns="http://www.w3.org/2000/svg" xmlns:xlink="http://www.w3.org/1999/xlink" x="0px" y="0px"
	 viewBox="0 0 129 29" style="enable-background:new 0 0 129 29;" xml:space="preserve">
<style type="text/css">
	.st0{fill:#8B5CF6;}
	.st1{fill-rule:evenodd;clip-rule:evenodd;fill:#8B5CF6;}
</style>
<path class="st0" d="M89.1,6.2V23h-2.6l-9.3-11.4V23h-3.1V6.2h2.6L86,17.6V6.2H89.1z M93.3,10.2h3V23h-3V10.2z M94.8,8.1
	c-0.5,0-1-0.2-1.4-0.5c-0.4-0.4-0.6-0.8-0.6-1.3s0.2-0.9,0.6-1.3c0.4-0.4,0.8-0.5,1.4-0.5s1,0.2,1.4,0.5c0.4,0.3,0.6,0.7,0.6,1.2
	c0,0.5-0.2,1-0.6,1.3C95.8,7.9,95.4,8.1,94.8,8.1z M105.5,17.5l-2.2,2.1V23h-3V5.2h3v10.8l6.2-5.8h3.6l-5.4,5.4l5.9,7.4h-3.6
	L105.5,17.5z M127,16.7c0,0.2,0,0.5,0,0.9h-10.1c0.2,0.9,0.6,1.7,1.4,2.3c0.8,0.5,1.7,0.8,2.8,0.8c1.4,0,2.6-0.5,3.5-1.4l1.6,1.8
	c-0.6,0.7-1.3,1.2-2.2,1.6c-0.9,0.4-1.9,0.5-3,0.5c-1.4,0-2.6-0.3-3.7-0.8c-1.1-0.6-1.9-1.3-2.5-2.3c-0.6-1-0.9-2.1-0.9-3.4
	c0-1.2,0.3-2.4,0.8-3.4c0.6-1,1.4-1.8,2.4-2.4c1-0.6,2.1-0.8,3.4-0.8c1.2,0,2.4,0.3,3.3,0.8c1,0.5,1.8,1.3,2.3,2.3
	C126.7,14.2,127,15.4,127,16.7z M120.5,12.4c-1,0-1.8,0.3-2.4,0.9c-0.7,0.6-1.1,1.3-1.2,2.3h7.3c-0.1-0.9-0.5-1.7-1.2-2.3
	C122.3,12.7,121.5,12.4,120.5,12.4z"/>
<path class="st1" d="M37.6,9.8c-12.5,3.5-23.5,6.3-24.6,6.3c-3,0-5.8-2.4-6.3-5.3C6.6,9.4,6.6,7.5,6.8,6.4l0.4-1.9l-1.6,2
	c-2.5,3.1-4.9,8.1-5.4,11.1c-1,5.9,3.8,9.8,10.2,8.4C13,25.4,61,4.6,61.8,3.7C62.5,3,58.9,3.9,37.6,9.8z"/>
<text transform="matrix(1 0 0 1 -62.2001 -31.3476)" class="st0" style="font-family:'MyriadPro-Regular'; font-size:12px;">bg-violet-500</text>
<text transform="matrix(1 0 0 1 25.4878 -65.5215)" style="fill:#A78BFA; font-family:'MyriadPro-Regular'; font-size:12px;">bg-violet-400</text>
</svg>
